X: 41811
T: Victory, The
R: reel
M: 4/4
K: Gmajor
GBdg edcB|Aaag aABA|GBdg (3efg dB|1 cAdc (3Bcd AF:|2 cAdc (3Bcd ef||
gdga bgag|efga bgef|gdga bgag|eaaf gdef|
~g3a bgag|efga bgef|gbag fagf|edef gedB||

